src/svg/care.svg

<?xml version="1.0" encoding="UTF-8"?>
<svg width="440px" height="330px" viewBox="0 0 440 330" version="1.1" xmlns="http://www.w3.org/2000/svg" xmlns:xlink="http://www.w3.org/1999/xlink">
    <!-- Generator: Sketch 59.1 (86144) - https://sketch.com -->
    <title>Graphic elements / Rich icons / Care</title>
    <desc>Created with Sketch.</desc>
    <g id="Graphic-elements-/-Rich-icons-/-Care" stroke="none" stroke-width="1" fill="none" fill-rule="evenodd">
        <g id="bannerAsset-218" transform="translate(70.000000, 15.000000)" fill-rule="nonzero">
            <circle id="Oval" fill="#0099DA" cx="150" cy="150" r="150"></circle>
            <path d="M73.037037,151.024691 C69.2576574,151.801829 66.1639637,154.506468 64.8888889,158.148148 C63.4320988,161.934156 63.3909465,166.695473 64.7654321,172.432099 C67.6049383,184.358025 73.5596708,189.234568 82.6296296,187.061728 C85.3257887,186.423453 87.9161052,185.400631 90.3209877,184.024691 C92.7078189,182.641975 95.0740741,181.106996 97.4197531,179.419753 L100.790123,193.567901 C95.8186232,197.269487 90.1228415,199.881806 84.0740741,201.234568 C74.7325103,203.473251 66.9135802,202.473251 60.617284,198.234568 C54.3209877,193.995885 49.9588477,186.753086 47.5308642,176.506173 C46.0113553,170.697184 45.8718355,164.613279 47.1234568,158.740741 C48.2612744,153.499744 50.9600262,148.726354 54.8641975,145.049383 C59.1113309,141.181771 64.3088217,138.510601 69.9259259,137.308642 C76.5520608,135.698133 83.4564114,135.605288 90.1234568,137.037037 L88.1481481,151.432099 C85.6721299,150.911111 83.1647403,150.552323 80.6419753,150.358025 C78.0877638,150.184649 75.5221261,150.409559 73.037037,151.024691 L73.037037,151.024691 Z" id="Path" fill="#FFFFFF"></path>
            <path d="M139.222222,187.123457 L134.567901,181.481481 L134.222222,181.555556 C133.009952,184.394122 131.134431,186.900462 128.753086,188.864198 C126.156125,190.676951 123.214803,191.937518 120.111111,192.567901 C115.592593,193.646091 111.711934,193.139918 108.469136,191.049383 C105.226337,188.958848 103.016461,185.45679 101.839506,180.54321 C100.613169,175.407407 101.481481,171.193416 104.444444,167.901235 C107.407407,164.609053 112.226337,161.975309 118.901235,160 L126.839506,157.82716 L126.679012,157.148148 C125.740741,153.197531 123.320988,151.687243 119.419753,152.617284 C115.91358,153.440329 111.748971,155.687243 106.925926,159.358025 L99.5185185,149.580247 C104.45679,145.358025 111.17284,142.230453 119.666667,140.197531 C125.831276,138.73251 130.958848,139.119342 135.049383,141.358025 C139.139918,143.596708 141.847737,147.45679 143.17284,152.938272 L150.691358,184.419753 L139.222222,187.123457 Z M124.407407,179.209877 C126.312494,178.797882 127.989624,177.676853 129.098765,176.074074 C130.221456,174.486532 130.570534,172.478205 130.049383,170.604938 L129.160494,166.901235 L125.45679,167.987654 C120.049383,169.477366 117.802469,172.131687 118.716049,175.950617 C119.341564,178.872428 121.218107,179.958848 124.345679,179.209877 L124.407407,179.209877 Z" id="Shape" fill="#FFFFFF"></path>
            <path d="M175.839506,126.753086 C177.21335,126.418325 178.613674,126.203526 180.024691,126.111111 L181,126.111111 L183.246914,142.160494 C181.303341,142.208756 179.37227,142.4864 177.493827,142.987654 C173.872428,143.8107 171.444444,145.263374 170.209877,147.345679 C168.921198,149.713094 168.649395,152.50241 169.45679,155.074074 L175.08642,178.666667 L158.518519,182.62963 L147.061728,134.567901 L159.407407,131.62963 L163.814815,138.679012 L164.617284,138.481481 C165.38483,135.640005 166.868303,133.042863 168.925926,130.938272 C170.77862,128.905672 173.179593,127.452226 175.839506,126.753086 L175.839506,126.753086 Z" id="Path" fill="#FFFFFF"></path>
            <path d="M220.308642,168.654321 C212.308642,170.563786 205.596708,169.921811 200.17284,166.728395 C194.748971,163.534979 191.090535,158.012346 189.197531,150.160494 C187.271605,142.053498 187.835391,135.345679 190.888889,130.037037 C193.942387,124.728395 199.271605,121.164609 206.876543,119.345679 C214.111111,117.617284 220.144033,118.168724 224.975309,121 C229.806584,123.831276 233.074074,128.769547 234.777778,135.814815 L236.530864,143.222222 L206.901235,150.296296 C207.480326,152.733965 209.113485,154.787854 211.358025,155.901235 C213.915903,157.013691 216.785121,157.18427 219.45679,156.382716 C222.1635,155.762645 224.792836,154.843413 227.296296,153.641975 C229.876951,152.332715 232.310488,150.751744 234.555556,148.925926 L237.407407,160.82716 C235.178549,162.738212 232.68322,164.314428 230,165.506173 C226.870881,166.845096 223.62726,167.898756 220.308642,168.654321 L220.308642,168.654321 Z M210.160494,130.469136 C208.337766,130.850934 206.737547,131.932522 205.703704,133.481481 C204.626093,135.406679 204.296412,137.661696 204.777778,139.814815 L219.012346,136.419753 C218.579778,134.37524 217.405531,132.563293 215.716049,131.333333 C214.079686,130.246687 212.049617,129.930899 210.160494,130.469136 Z" id="Shape" fill="#FFFFFF"></path>
            <polygon id="Path" fill="#FFFFFF" points="239.123457 118.987654 237.37037 119.407407 235.802469 112.592593 233.555556 113.135802 233.209877 111.679012 239.382716 110.185185 239.728395 111.641975 237.493827 112.185185"></polygon>
            <path d="M246.135802,117.283951 L242.604938,111.283951 L242.604938,111.283951 C242.987654,112.592593 243.234568,113.469136 243.333333,113.901235 L244.259259,117.753086 L242.691358,118.123457 L240.716049,109.851852 L243.098765,109.283951 L246.567901,115.135802 L246.567901,115.135802 L247.135802,108.320988 L249.518519,107.753086 L251.481481,116.049383 L249.839506,116.444444 L248.91358,112.530864 C248.91358,112.345679 248.814815,112.135802 248.765432,111.888889 C248.716049,111.641975 248.580247,111 248.382716,109.950617 L248.382716,109.950617 L247.790123,116.925926 L246.135802,117.283951 Z" id="Path" fill="#FFFFFF"></path>
        </g>
    </g>
</svg>

<svg width="440" height="330" xmlns="http://www.w3.org/2000/svg"><g transform="translate(70 15)" fill-rule="nonzero" fill="none"><circle fill="#0099DA" cx="150" cy="150" r="150"/><path d="M73.037 151.025a10.975 10.975 0 00-8.148 7.123c-1.457 3.786-1.498 8.547-.124 14.284 2.84 11.926 8.795 16.803 17.865 14.63a28.889 28.889 0 007.691-3.037 85.927 85.927 0 007.099-4.605l3.37 14.148a44.111 44.111 0 01-16.716 7.667c-9.341 2.238-17.16 1.238-23.457-3-6.296-4.24-10.658-11.482-13.086-21.729a38.494 38.494 0 01-.408-17.765 26.543 26.543 0 017.741-13.692 32.457 32.457 0 0115.062-7.74 45.272 45.272 0 0120.197-.272l-1.975 14.395a58.136 58.136 0 00-7.506-1.074 24.691 24.691 0 00-7.605.667zM139.222 187.123l-4.654-5.642-.346.075a19.296 19.296 0 01-5.469 7.308 23.148 23.148 0 01-8.642 3.704c-4.518 1.078-8.4.572-11.642-1.519-3.243-2.09-5.453-5.592-6.63-10.506-1.226-5.136-.358-9.35 2.605-12.642s7.782-5.926 14.457-7.901l7.939-2.173-.161-.679c-.938-3.95-3.358-5.46-7.26-4.53-3.505.822-7.67 3.07-12.493 6.74l-7.407-9.778c4.938-4.222 11.654-7.35 20.148-9.382 6.164-1.465 11.292-1.079 15.382 1.16s6.799 6.099 8.124 11.58l7.518 31.482-11.469 2.703zm-14.815-7.913a7.679 7.679 0 004.692-3.136 6.47 6.47 0 00.95-5.47l-.889-3.703-3.703 1.087c-5.408 1.49-7.655 4.144-6.741 7.963.626 2.921 2.502 4.008 5.63 3.259h.061zM175.84 126.753a24.42 24.42 0 014.185-.642H181l2.247 16.05a24.691 24.691 0 00-5.753.827c-3.622.823-6.05 2.275-7.284 4.358a9.938 9.938 0 00-.753 7.728l5.63 23.593-16.568 3.963-11.457-48.062 12.345-2.938 4.408 7.049.802-.198a17.21 17.21 0 014.309-7.543 14.26 14.26 0 016.914-4.185zM220.309 168.654c-8 1.91-14.712 1.268-20.136-1.926-5.424-3.193-9.082-8.716-10.975-16.568-1.926-8.107-1.363-14.814 1.69-20.123 3.054-5.309 8.384-8.872 15.989-10.691 7.234-1.729 13.267-1.177 18.098 1.654 4.832 2.831 8.1 7.77 9.803 14.815l1.753 7.407-29.63 7.074a8.432 8.432 0 004.457 5.605 11.802 11.802 0 008.099.482 37.444 37.444 0 007.84-2.741 40.667 40.667 0 007.259-4.716l2.851 11.901a30.235 30.235 0 01-7.407 4.68 56.543 56.543 0 01-9.691 3.147zM210.16 130.47a7.111 7.111 0 00-4.456 3.012 8.963 8.963 0 00-.926 6.334l14.234-3.395a8.457 8.457 0 00-3.296-5.087 6.716 6.716 0 00-5.556-.864zM239.123 118.988l-1.753.42-1.568-6.815-2.246.543-.346-1.457 6.173-1.494.345 1.457-2.234.543zM246.136 117.284l-3.531-6c.383 1.309.63 2.185.728 2.617l.926 3.852-1.568.37-1.975-8.271 2.383-.568 3.469 5.852.568-6.815 2.383-.568 1.962 8.296-1.641.395-.926-3.913c0-.185-.1-.395-.149-.642-.049-.247-.185-.889-.382-1.938l-.593 6.975-1.654.358z" fill="#FFF"/></g></svg>
